X:9
T:Burnt River
C:Brian Pickell
D:JIIG:Ian Robb, James Stephens, Ian Clark and Greg Brown
Z:robin.beech@mcgill.ca
R:jig
M:6/8
L:1/8
K:D
DED FDF | ABc dfe | d2B BAB | d2B BAF | DED FDF |
Adf afd | f2e ede | fed BAF :: B3 Bcd | B3 BAG | B3 Bcd |
edc B2 A | B3 Bcd | B3 BAG | Bcd ede |1 fed cBA :|2 fed BAF |]
